X: 1
T: Con McGinley's
M: 4/4
L: 1/8
R: reel
K: Amaj
A2GA FAEA|/A/A/A/Bc dfec|A2GA FAEc|dBGB ABcB|
A2GA FAEA|/A/A/A/Bc dfed|ceAc dfBa|ga (3bag a2(3efg||
aA /A/A/A/agfe|dcBA GBBg|aA ~A2ceAc|dfec A2fg|
afbf =gfef|=ged=c B=GGB|ceAc dfBa|ga (3bag afec||
